X: 30743
T: Oró A Bhuachaillín
R: slide
M: 12/8
K: Dmajor
|:fff f2 d ggg gfe|fgf fgf e2 d cBA|
f2 f fed gag g2 e|fff eee d3 d3:|
|:A2 G FED F2 A A2 c|ddd cBA B2 E EE/F/G|
A2 G F2 D F2 A A2 d|c2 B ABc ddd d3:|

